X: 17860
T: Horologist's, The
R: reel
M: 4/4
K: Eminor
|:BA|GEE^D EFGA|Bee^d efga|be e/e/g bege|fBB^A BcB=A|
BEE^D E2 GA|Bee^d e2 ga|bc'b^a bgec|agf^d e2:|
|:GA|B2 ec BAGE|CEGE B,EGE|^D2 FA cBAF|GAFA EAGA|
BGec B/B/A GE|CGEG B,EGE|^D2 FA c2 B^A|1 BcB^A Bc:|2 B^dfB e2||

